src/pos-icons/swap-vertical-variant.svg

<svg height="24" viewBox="0 0 24 24" width="24" xmlns="http://www.w3.org/2000/svg"><path d="m18 4-4 4h3v8a2 2 0 0 1 -2 2 2 2 0 0 1 -2-2v-8a4 4 0 0 0 -4-4 4 4 0 0 0 -4 4v8h-3l4 4 4-4h-3v-8a2 2 0 0 1 2-2 2 2 0 0 1 2 2v8a4 4 0 0 0 4 4 4 4 0 0 0 4-4v-8h3z"/></svg>

<?xml version="1.0" encoding="UTF-8"?><!DOCTYPE svg PUBLIC "-//W3C//DTD SVG 1.1//EN" "http://www.w3.org/Graphics/SVG/1.1/DTD/svg11.dtd"><svg xmlns="http://www.w3.org/2000/svg" xmlns:xlink="http://www.w3.org/1999/xlink" version="1.1" id="mdi-swap-vertical-variant" width="24" height="24" viewBox="0 0 24 24"><path d="M18,4L14,8H17V16A2,2 0 0,1 15,18A2,2 0 0,1 13,16V8A4,4 0 0,0 9,4A4,4 0 0,0 5,8V16H2L6,20L10,16H7V8A2,2 0 0,1 9,6A2,2 0 0,1 11,8V16A4,4 0 0,0 15,20A4,4 0 0,0 19,16V8H22L18,4Z" /></svg>
